gama.ui.shared/icons_svg/light/navigator/files/file.osm.svg

<svg height="16.751" viewBox="-718.872 -3501.737 16.75 16.751" width="16.75" xmlns="http://www.w3.org/2000/svg"><g fill="none"><path d="m-718.4969-3501.361h15.999997v15.999997h-15.999997z"/><path d="m-714.6573-3500.5942 4.96-.16 3.36-.16 3.2 3.2-.16 11.68h-11.36z" fill="#fff"/><path d="m-702.4977-3497.7386v10.3776c0 1.1046-.8955 2-2 2h-8.8c-1.1046 0-2-.8954-2-2v-12c0-1.1046.8954-2 2-2h7.1776c.1062-.0067.2167.0287.3052.117l3.2 3.2c.0885.0886.1239.199.1172.3054zm-4-2.8224h-6.8c-.6628 0-1.2.5373-1.2 1.2v12c0 .6627.5372 1.2 1.2 1.2h8.8c.6627 0 1.2-.5373 1.2-1.2v-10h-2.8c-.22095 0-.4-.179-.4-.4zm.8.5657v1.8343h1.8343zm-1.6 11.4333h-3.2c0 .442-.3582.8-.8.8h-.8c-.4419 0-.8-.358-.8-.8v-.8c0-.4416.3581-.8.8-.8v-3.2c-.4419 0-.8-.358-.8-.8v-.8c0-.4416.3581-.8.8-.8h.8c.4418 0 .8.3584.8.8h3.2c0-.4416.3581-.8.8-.8h.8c.4418 0 .8.3584.8.8v.8c0 .442-.3582.8-.8.8v3.2c.4418 0 .8.3584.8.8v.8c0 .442-.3582.8-.8.8h-.8c-.4419 0-.8-.358-.8-.8zm0-.8c0-.4416.3581-.8.8-.8v-3.2c-.4419 0-.8-.358-.8-.8h-3.2c0 .442-.3582.8-.8.8v3.2c.4418 0 .8.3584.8.8zm1.0749 0h-.2749v.8h.8v-.8h-.2749c-.0394.013-.08145.02-.1251.02-.0437 0-.0858-.007-.1251-.02zm-5.6 0h-.2749v.8h.8v-.8h-.2749c-.0394.013-.08144.02-.1251.02-.0437 0-.0858-.007-.1251-.02zm-.2749-5.6v.8h.8v-.8zm5.6 0v.8h.8v-.8z" fill="#999"/></g></svg>

<?xml version="1.0" encoding="UTF-8" standalone="no"?>
<!DOCTYPE svg PUBLIC "-//W3C//DTD SVG 1.1//EN" "http://www.w3.org/Graphics/SVG/1.1/DTD/svg11.dtd">
<svg xmlns="http://www.w3.org/2000/svg" version="1.1" xmlns:xl="http://www.w3.org/1999/xlink" xmlns:dc="http://purl.org/dc/elements/1.1/" viewBox="-718.8719 -3501.737 16.749997 16.7508" width="16.749997" height="16.7508">
  <defs/>
  <g id="SOURCES" stroke-opacity="1" stroke-dasharray="none" fill="none" fill-opacity="1" stroke="none">
    <title>SOURCES</title>
    <g id="SOURCES_Light">
      <title>Light</title>
      <g id="Group_8811">
        <g id="Graphic_8718">
          <rect x="-718.4969" y="-3501.361" width="15.999997" height="15.999997" stroke="gray" stroke-opacity="0" stroke-linecap="round" stroke-linejoin="round" stroke-width="0"/>
        </g>
        <g id="Graphic_8712">
          <path d="M -714.6573 -3500.5942 L -709.6973 -3500.7542 L -706.3373 -3500.9142 L -703.1373 -3497.7142 L -703.2973 -3486.0342 L -714.6573 -3486.0342 Z" fill="white"/>
        </g>
        <g id="Graphic_6564">
          <path d="M -702.4977 -3497.7386 L -702.4977 -3487.361 C -702.4977 -3486.2564 -703.3932 -3485.361 -704.4977 -3485.361 L -713.2977 -3485.361 C -714.4023 -3485.361 -715.2977 -3486.2564 -715.2977 -3487.361 L -715.2977 -3499.361 C -715.2977 -3500.4656 -714.4023 -3501.361 -713.2977 -3501.361 L -706.1201 -3501.361 C -706.0139 -3501.3677 -705.9034 -3501.3323 -705.8149 -3501.244 L -702.6149 -3498.044 C -702.5264 -3497.9554 -702.491 -3497.845 -702.4977 -3497.7386 Z M -706.4977 -3500.561 L -713.2977 -3500.561 C -713.9605 -3500.561 -714.4977 -3500.0237 -714.4977 -3499.361 L -714.4977 -3487.361 C -714.4977 -3486.6983 -713.9605 -3486.161 -713.2977 -3486.161 L -704.4977 -3486.161 C -703.835 -3486.161 -703.2977 -3486.6983 -703.2977 -3487.361 L -703.2977 -3497.361 L -706.0977 -3497.361 C -706.31865 -3497.361 -706.4977 -3497.54 -706.4977 -3497.761 Z M -705.6977 -3499.9953 L -705.6977 -3498.161 L -703.8634 -3498.161 Z M -707.2977 -3488.562 L -710.4977 -3488.562 C -710.4977 -3488.12 -710.8559 -3487.762 -711.2977 -3487.762 L -712.0977 -3487.762 C -712.5396 -3487.762 -712.8977 -3488.12 -712.8977 -3488.562 L -712.8977 -3489.362 C -712.8977 -3489.8036 -712.5396 -3490.162 -712.0977 -3490.162 L -712.0977 -3493.362 C -712.5396 -3493.362 -712.8977 -3493.72 -712.8977 -3494.162 L -712.8977 -3494.962 C -712.8977 -3495.4036 -712.5396 -3495.762 -712.0977 -3495.762 L -711.2977 -3495.762 C -710.8559 -3495.762 -710.4977 -3495.4036 -710.4977 -3494.962 L -707.2977 -3494.962 C -707.2977 -3495.4036 -706.9396 -3495.762 -706.4977 -3495.762 L -705.6977 -3495.762 C -705.2559 -3495.762 -704.8977 -3495.4036 -704.8977 -3494.962 L -704.8977 -3494.162 C -704.8977 -3493.72 -705.2559 -3493.362 -705.6977 -3493.362 L -705.6977 -3490.162 C -705.2559 -3490.162 -704.8977 -3489.8036 -704.8977 -3489.362 L -704.8977 -3488.562 C -704.8977 -3488.12 -705.2559 -3487.762 -705.6977 -3487.762 L -706.4977 -3487.762 C -706.9396 -3487.762 -707.2977 -3488.12 -707.2977 -3488.562 Z M -707.2977 -3489.362 C -707.2977 -3489.8036 -706.9396 -3490.162 -706.4977 -3490.162 L -706.4977 -3493.362 C -706.9396 -3493.362 -707.2977 -3493.72 -707.2977 -3494.162 L -710.4977 -3494.162 C -710.4977 -3493.72 -710.8559 -3493.362 -711.2977 -3493.362 L -711.2977 -3490.162 C -710.8559 -3490.162 -710.4977 -3489.8036 -710.4977 -3489.362 L -707.2977 -3489.362 Z M -706.2228 -3489.362 L -706.4977 -3489.362 L -706.4977 -3488.562 L -705.6977 -3488.562 L -705.6977 -3489.362 L -705.9726 -3489.362 C -706.012 -3489.349 -706.05405 -3489.342 -706.0977 -3489.342 C -706.1414 -3489.342 -706.1835 -3489.349 -706.2228 -3489.362 Z M -711.8228 -3489.362 L -712.0977 -3489.362 L -712.0977 -3488.562 L -711.2977 -3488.562 L -711.2977 -3489.362 L -711.5726 -3489.362 C -711.612 -3489.349 -711.65404 -3489.342 -711.6977 -3489.342 C -711.7414 -3489.342 -711.7835 -3489.349 -711.8228 -3489.362 Z M -712.0977 -3494.962 L -712.0977 -3494.162 L -711.2977 -3494.162 L -711.2977 -3494.962 Z M -706.4977 -3494.962 L -706.4977 -3494.162 L -705.6977 -3494.162 L -705.6977 -3494.962 Z" fill="#999"/>
        </g>
      </g>
    </g>
  </g>
</svg>
